svg/sun_thermometer.svg

<svg xmlns="http://www.w3.org/2000/svg" viewBox="0 0 24 24"><path d="M10 2 7.6 5.4C8.4 5.2 9.2 5 10 5s1.6.2 2.4.4M19 5c-1.11 0-2 .89-2 2v6.76c-.64.57-1 1.39-1 2.24 0 1.66 1.34 3 3 3s3-1.34 3-3c0-.85-.36-1.67-1-2.23V7c0-1.11-.89-2-2-2m0 1c.55 0 1 .45 1 1v1h-2V7c0-.55.45-1 1-1m-13.5.7L1.3 7l1.8 3.8c.1-.8.4-1.6.8-2.3.5-.7 1-1.3 1.6-1.8M10 7c-2.8 0-5 2.2-5 5s2.2 5 5 5 5-2.2 5-5-2.2-5-5-5m-6.8 6.2L1.4 17l4.1.4c-.5-.5-1.1-1.2-1.5-1.9-.5-.7-.7-1.5-.8-2.3m4.4 5.4L10 22l2.4-3.4c-.8.2-1.6.4-2.4.4-.9 0-1.7-.2-2.4-.4"/></svg>

<svg xmlns="http://www.w3.org/2000/svg" id="mdi-sun-thermometer" viewBox="0 0 24 24"><path d="M10 2L7.6 5.4C8.4 5.2 9.2 5 10 5C10.8 5 11.6 5.2 12.4 5.4M19 5C17.89 5 17 5.89 17 7V13.76C16.36 14.33 16 15.15 16 16C16 17.66 17.34 19 19 19C20.66 19 22 17.66 22 16C22 15.15 21.64 14.33 21 13.77V7C21 5.89 20.11 5 19 5M19 6C19.55 6 20 6.45 20 7V8H18V7C18 6.45 18.45 6 19 6M5.5 6.7L1.3 7L3.1 10.8C3.2 10 3.5 9.2 3.9 8.5C4.4 7.8 4.9 7.2 5.5 6.7M10 7C7.2 7 5 9.2 5 12C5 14.8 7.2 17 10 17C12.8 17 15 14.8 15 12C15 9.2 12.8 7 10 7M3.2 13.2L1.4 17L5.5 17.4C5 16.9 4.4 16.2 4 15.5C3.5 14.8 3.3 14 3.2 13.2M7.6 18.6L10 22L12.4 18.6C11.6 18.8 10.8 19 10 19C9.1 19 8.3 18.8 7.6 18.6Z" /></svg>
